client/public/img/game/shared/weapons/m1895.svg

<?xml version="1.0" encoding="UTF-8" standalone="no"?>
<svg
   width="110.421"
   height="110"
   viewBox="0 0 110.421 110"
   fill="none"
   version="1.1"
   id="svg30"
   sodipodi:docname="m1895.svg"
   inkscape:version="1.4 (86a8ad7, 2024-10-11)"
   xmlns:inkscape="http://www.inkscape.org/namespaces/inkscape"
   xmlns:sodipodi="http://sodipodi.sourceforge.net/DTD/sodipodi-0.dtd"
   xmlns="http://www.w3.org/2000/svg"
   xmlns:svg="http://www.w3.org/2000/svg">
  <sodipodi:namedview
     id="namedview30"
     pagecolor="#ffffff"
     bordercolor="#000000"
     borderopacity="0.25"
     inkscape:showpageshadow="2"
     inkscape:pageopacity="0.0"
     inkscape:pagecheckerboard="0"
     inkscape:deskcolor="#d1d1d1"
     inkscape:zoom="3.6681818"
     inkscape:cx="17.447336"
     inkscape:cy="84.919455"
     inkscape:window-width="1920"
     inkscape:window-height="1009"
     inkscape:window-x="-8"
     inkscape:window-y="-8"
     inkscape:window-maximized="1"
     inkscape:current-layer="svg30" />
  <g
     clip-path="url(#clip0_1243_369)"
     id="g30"
     transform="rotate(30,48.334654,58.312519)">
    <path
       d="M 45.7407,33.698 89.8004,8.26017 c 0.1119,-0.06463 0.1514,-0.20584 0.0881,-0.3154 L 87.7773,4.28801 C 87.714,4.17845 87.572,4.14203 87.4601,4.20665 L 81.7253,7.51762 81.3635,8.04737 43.5393,29.8851 Z"
       fill="#514c49"
       stroke="#363330"
       stroke-width="1.83249"
       stroke-miterlimit="3.99393"
       stroke-linecap="round"
       id="path1" />
    <path
       fill-rule="evenodd"
       clip-rule="evenodd"
       d="m 31.9442,63.0452 c 1.8275,-0.3668 5.4462,-2.2547 5.4462,-2.2547 1.0091,-0.2903 1.5929,-0.0811 1.9099,0.3484 0.3246,0.4398 0.3033,1.102 0.1105,2.0994 -0.408,2.1117 0.5189,4.4579 2.1274,5.7611 1.934,1.5671 4.7676,1.7961 6.526,0.2022 0.3602,-0.3265 -0.0179,-0.8255 -0.4578,-0.6233 -0.8341,0.3832 -1.302,0.2634 -2.5844,-0.0539 -1.3538,-0.3349 -2.5968,-1.3179 -3.1672,-2.704 -0.5985,-1.4543 -0.6492,-2.8186 -0.0352,-3.9413 0.8771,-1.6036 1.7156,-2.6865 2.9606,-3.8955 l -1.2726,-1.4699 -9.3238,2.8262 z"
       fill="#45413f"
       stroke="#353230"
       stroke-width="1.83249"
       stroke-miterlimit="3.99393"
       stroke-linecap="round"
       id="path2" />
    <path
       d="m 21.7608,63.5666 c -0.9293,-1.7145 -2.2302,-3.2113 -2.4373,-5.426 -2.0125,-1.0753 -3.6422,-0.8054 -5.4631,-1.2077 -1.8248,-0.1749 -2.5494,0.8689 -2.9419,2.3656 -0.3926,1.4967 -1.36531,2.7621 -2.05717,3.5636 -0.69185,0.8014 -0.93795,1.2168 -1.31016,1.9592 L 6.6796,64.462 8.47338,60.9713 C 9.76005,58.898 9.61035,57.3172 8.83646,55.9505 L 5.26739,54.139 5.5918,52.6057 l 1.37949,0.256 0.39015,-1.9754 0.42275,0.0866 3.76281,-5.672 0.871,0.2844 -2.61526,5.8011 17.14366,3.5441 z"
       fill="#5d5855"
       stroke="#363330"
       stroke-width="1.83249"
       stroke-miterlimit="3.99393"
       stroke-linecap="round"
       id="path3" />
    <path
       fill-rule="evenodd"
       clip-rule="evenodd"
       d="m 13.504,74.4806 c 0.0149,-3.4789 -0.9679,-6.6135 -1.9439,-9.609 10.2893,-4.5943 13.5858,-6.4033 11.9011,-14.8701 l -4.5842,-9.6648 1.684,-0.9636 c 0.8534,0.1891 2.3448,-0.672 2.8954,-0.9899 0.5506,-0.3179 1.0022,-0.5591 1.4918,-0.7688 L 42.9631,27.3543 c 2.922,-1.4974 6.43,-3.0895 8.0921,-2.6503 l 5.6357,9.7613 c -2.3014,1.4028 -4.2616,3.0694 -2.6614,8.2522 0.085,0.5459 0.4093,1.0497 0.7336,1.5535 0.6746,1.048 1.3493,2.0959 -0.1298,3.5231 l -9.4426,6.6934 c -4.6967,3.251 -5.7313,4.118 -6.9668,7.0031 -4.6473,3.3821 -7.6972,8.124 -9.4332,13.1682 -7.6872,-6.9366 -11.833,-3.3382 -15.175,-0.1769 z M 52.9281,46.1488 42.7809,28.5734 25.5967,38.4638 36.1623,56.7641 Z"
       fill="#79726d"
       id="path4" />
    <path
       d="m 27.3621,73.4531 c -1.2437,-0.9671 -2.388,-1.6444 -3.4473,-2.0877 l 6.7,-17.0859 3.7281,1.3718 z"
       fill="#6e6863"
       id="path5" />
    <path
       d="M 31.9026,49.3828 49.0747,39.4685 46.5139,35.033 29.3418,44.9473 Z"
       fill="#484442"
       id="path6" />
    <path
       d="m 45.9726,34.0915 -0.8267,-0.0517 -2.2013,-3.8129 0.3685,-0.7418 z"
       fill="#45413f"
       id="path7" />
    <path
       fill-rule="evenodd"
       clip-rule="evenodd"
       d="m 53.7565,29.3718 2.3969,4.1519 10.4314,-6.0225 -2.3976,-4.1527 z"
       fill="#5d5855"
       stroke="#363330"
       stroke-width="1.83249"
       stroke-miterlimit="3.99393"
       stroke-linecap="round"
       id="path8" />
    <path
       fill-rule="evenodd"
       clip-rule="evenodd"
       d="m 53.7555,29.3701 -2.6089,-4.5183 10.4314,-6.0226 2.6092,4.5193 z"
       fill="#6b6561"
       stroke="#363330"
       stroke-width="1.83249"
       stroke-miterlimit="3.99393"
       stroke-linecap="round"
       id="path9" />
    <path
       d="M 82.0511,7.32894 87.2552,4.32436 C 86.5145,3.10205 84.8853,2.71539 83.6146,3.44859 l 0.4285,0.74226 -2.3608,2.49931 z"
       fill="#433f3d"
       stroke="#363330"
       stroke-width="1.83249"
       stroke-miterlimit="3.99393"
       stroke-linecap="round"
       id="path10" />
    <path
       d="m 71.4865,22.4081 0.8302,1.4379 -5.883,3.3965 -0.8302,-1.4378 z"
       fill="#534e4b"
       stroke="#363330"
       stroke-width="1.83249"
       stroke-miterlimit="3.99393"
       stroke-linecap="round"
       id="path11" />
    <path
       fill-rule="evenodd"
       clip-rule="evenodd"
       d="M 35.8966,55.3066 39.3214,53.254 39.0717,52.8083 51.6326,45.3595 42.6405,29.7006 29.958,37.0228 29.6311,36.4566 26.1682,38.4559 Z"
       fill="#585350"
       id="path12" />
    <path
       d="M 39.0688,52.8119 29.9551,37.0264 42.6376,29.7041 51.7514,45.4896 Z"
       fill="#5d5855"
       stroke="#363330"
       stroke-width="1.83249"
       stroke-miterlimit="3.99393"
       stroke-linecap="round"
       id="path13" />
    <path
       fill-rule="evenodd"
       clip-rule="evenodd"
       d="m 27.1348,37.8984 1.6224,-0.9367 1.3903,2.4082 c -0.3096,0.6918 -0.8692,1.0146 -1.6224,0.9367 z"
       fill="#484442"
       id="path14" />
    <path
       fill-rule="evenodd"
       clip-rule="evenodd"
       d="m 34.5586,50.7539 1.6224,-0.9367 1.4165,2.4534 c -0.3097,0.6918 -0.8692,1.0147 -1.6224,0.9367 z"
       fill="#484442"
       id="path15" />
    <path
       fill-rule="evenodd"
       clip-rule="evenodd"
       d="m 30.8613,44.3506 1.6225,-0.9367 2.0426,3.538 c -0.3096,0.6918 -0.8692,1.0147 -1.6224,0.9367 z"
       fill="#484442"
       id="path16" />
    <path
       fill-rule="evenodd"
       clip-rule="evenodd"
       d="m 37.7307,38.5859 3.4153,-1.9718 c 1.8461,-1.0659 3.6486,-1.3761 4.0415,-0.6956 0.3929,0.6806 -0.777,2.0865 -2.6231,3.1523 l -3.4153,1.9718 c -1.8461,1.0658 -3.6486,1.376 -4.0415,0.6955 -0.3929,-0.6805 0.777,-2.0864 2.6231,-3.1522 z"
       fill="#484442"
       id="path17" />
    <path
       d="m 45.2573,43.7352 -3.4152,1.9718 c -1.8404,1.0625 -3.0955,2.3341 -2.8034,2.8401 0.2922,0.506 2.0209,0.0548 3.8613,-1.0077 l 3.4153,-1.9718 c 1.8403,-1.0625 3.0954,-2.3341 2.8033,-2.8401 -0.2922,-0.506 -2.0209,-0.0549 -3.8613,1.0077 z"
       fill="#484442"
       id="path18" />
    <path
       fill-rule="evenodd"
       clip-rule="evenodd"
       d="m 41.9993,30.393 c 0.6953,-0.4014 -0.777,2.0865 -2.6231,3.1523 l -3.4152,1.9718 c -1.8461,1.0658 -4.7368,1.097 -4.0415,0.6955 z"
       fill="#484442"
       id="path19" />
    <path
       d="m 71.3267,22.1322 1.1502,1.9921 3.2706,-1.7471 c 0.0342,-0.5227 -0.1076,-0.9281 -0.3415,-1.2721 -0.181,-0.3745 -0.4611,-0.7 -0.9309,-0.9317 z"
       fill="#484442"
       stroke="#363330"
       stroke-width="1.83249"
       stroke-miterlimit="3.99393"
       stroke-linecap="round"
       id="path20" />
    <path
       d="m 46.6669,53.4402 7.9702,-5.6492 c 0,0 0.6755,0.4014 0.6685,0.7008 -0.0078,0.33 -0.1009,0.6189 -0.2028,0.9348 -0.2022,0.6272 -0.0928,1.0799 0.2369,2.4519 0.183,0.7611 1.0347,1.6215 1.572,2.4802 0.3844,0.6142 0.9483,1.3945 1.2064,2.332 0.553,2.009 0.7095,3.9688 -0.1626,6.0925 -0.5902,1.4373 -2.0648,3.7936 -3.9082,5.6055 -1.6848,1.6561 -4.1844,3.4607 -5.9361,4.3085 -2.4899,1.2052 -7.2611,2.6209 -11.7778,-0.6807 -2.5396,-1.8564 -4.2146,-2.1746 -6.1697,-0.6967 1.7024,-3.5332 4.1342,-6.7808 7.4047,-9.3352 -2.4,10.8788 3.6725,10.3943 7.8989,9.4932 2.1127,-0.4505 5.8018,-2.8832 8.0922,-5.7077 2.2904,-2.8245 2.965,-5.5719 2.4241,-8.1814 -0.8132,-3.9229 -4.2654,-5.7671 -8.4088,-3.4494 z"
       fill="#6b6561"
       id="path21" />
    <path
       fill-rule="evenodd"
       clip-rule="evenodd"
       d="M 35.8966,55.3066 39.3214,53.254 39.0717,52.8083 51.6326,45.3595 42.6405,29.7006 29.958,37.0228 29.6311,36.4566 26.1682,38.4559 Z"
       stroke="#363330"
       stroke-width="1.83249"
       stroke-miterlimit="3.99393"
       stroke-linecap="round"
       id="path22" />
    <path
       d="m 28.8108,105.208 c -1.0129,-0.292 -2.4417,-2.093 -2.4417,-2.093 l 3.6353,-1.61 c 0,0 0.3349,1.993 -0.0875,3.057 l 1.1651,2.017 c 0.1732,0.3 0.0651,0.687 -0.2413,0.864 -0.3064,0.177 -0.6952,0.077 -0.8683,-0.223 z"
       fill="#403d3a"
       stroke="#363331"
       stroke-width="1.83249"
       stroke-miterlimit="3.99393"
       id="path23" />
    <path
       d="m 11.56,64.8716 c 0.9761,2.9958 1.959,6.1302 1.9442,9.6093 l 0.1113,8e-4 c 3.3421,-3.1611 7.4879,-6.7594 15.175,0.1768 0.3898,-1.1332 0.8438,-2.2446 1.3695,-3.3354 1.955,-1.4779 3.6301,-1.1598 6.1698,0.6967 4.5168,3.302 9.2877,1.8856 11.7776,0.6805 1.752,-0.8473 4.2515,-2.652 5.9361,-4.3085 1.8437,-1.8115 3.3181,-4.1681 3.9083,-5.6051 0.8723,-2.1236 0.7161,-4.0833 0.1627,-6.0926 -0.219,-0.7952 -0.6581,-1.4777 -1.0213,-2.0419 l -0.1849,-0.29 C 56.7234,54.067 56.502,53.7723 56.2832,53.4812 L 56.28,53.4769 56.2779,53.4741 C 55.8613,52.9195 55.4556,52.3794 55.3362,51.882 l -9e-4,-0.0038 c -0.3276,-1.3635 -0.4381,-1.823 -0.2362,-2.4484 0.1022,-0.3153 0.1952,-0.6045 0.2029,-0.9344 0.0026,-0.1038 -0.0771,-0.22 -0.1825,-0.3276 -0.1983,-0.2027 -0.4861,-0.3734 -0.4861,-0.3734 1.4789,-1.4272 0.8042,-2.4756 0.1299,-3.5233 l -2e-4,-3e-4 -2e-4,-3e-4 c -0.3244,-0.5038 -0.6482,-1.0068 -0.7333,-1.5527 -1.6004,-5.1832 0.3598,-6.8501 2.6615,-8.2524 l -5.6357,-9.7613 c -1.6624,-0.4392 -5.1702,1.1531 -8.0923,2.6501 L 24.9484,37.6145 c -0.4898,0.2094 -0.9415,0.4506 -1.4922,0.7685 -0.5504,0.3178 -2.0419,1.1789 -2.8953,0.9897 l -1.6839,0.9639 4.5843,9.6648 C 25.1458,58.4681 21.8495,60.2772 11.56,64.8716 Z"
       stroke="#363330"
       stroke-width="3.66498"
       id="path24" />
    <path
       d="m 37.5676,61.9857 c 0.2782,-0.2216 0.3685,-0.2861 0.659,-0.4972 1.2351,-2.8859 2.2697,-3.7529 6.9664,-7.0038 l 1.4729,-1.0436 0.9079,0.6991 c 4.1433,-2.3178 7.5955,-0.4736 8.4086,3.449 0.541,2.6096 -0.1338,5.3569 -2.4242,8.1815 -2.2902,2.8245 -5.9795,5.2573 -8.0918,5.7081 -4.2267,0.9008 -10.2989,1.3856 -7.8988,-9.4931 z"
       stroke="#363330"
       stroke-width="1.83249"
       id="path25" />
    <path
       fill-rule="evenodd"
       clip-rule="evenodd"
       d="m 21.0339,103.995 c 5.3786,-0.041 9.8438,-1.89 13.1466,-6.0397 C 29.036,91.0864 25.7598,83.1257 28.7949,74.6584 20.9782,67.6035 16.8228,71.4407 13.4513,74.6371 c -1.144,11.2112 2.6628,20.5007 7.5826,29.3579 z"
       fill="#66381a"
       stroke="#512d15"
       stroke-width="3.66498"
       stroke-miterlimit="3.99393"
       stroke-linecap="round"
       id="path26" />
    <path
       fill-rule="evenodd"
       clip-rule="evenodd"
       d="m 21.9991,91.8641 2.731,-5.0691 -4.4343,-2.9409 -2.649,4.8589 z"
       fill="#5e3417"
       id="path27" />
    <path
       d="m 21.5823,88.4323 c 0.3484,-0.2012 0.4713,-0.6408 0.2744,-0.9818 -0.1969,-0.3411 -0.639,-0.4544 -0.9875,-0.2532 -0.3484,0.2011 -0.4713,0.6407 -0.2744,0.9817 0.1969,0.3411 0.639,0.4545 0.9875,0.2533 z"
       fill="#88593a"
       id="path28" />
    <path
       d="M 52.9271,46.1478 42.7799,28.5724 25.5957,38.4629 36.1614,56.7632 Z"
       stroke="#363330"
       stroke-width="1.83249"
       stroke-miterlimit="3.99393"
       stroke-linecap="round"
       id="path29" />
    <path
       fill-rule="evenodd"
       clip-rule="evenodd"
       d="m 32.3153,57.4952 -0.8857,0.5096 -2.5622,-4.1544 c 0.8827,-1.4586 1.2318,-2.7905 0.3266,-4.3324 l -4.6551,-8.0628 3.8595,-2.2283 0.8541,1.4793 -2.2516,1.345 6.5007,11.6118 1.0503,-0.4436 0.2186,0.3624 -0.355,0.223 0.8996,1.5694 -2.799,1.616 z"
       fill="#5d5855"
       stroke="#363330"
       stroke-width="1.83249"
       stroke-miterlimit="3.99393"
       stroke-linecap="round"
       id="path30" />
  </g>
  <defs
     id="defs30">
    <clipPath
       id="clip0_1243_369">
      <rect
         width="110"
         height="110"
         fill="#ffffff"
         id="rect30"
         x="0"
         y="0" />
    </clipPath>
  </defs>
</svg>

<svg width="110" height="110" viewBox="0 0 110 110" fill="none" xmlns="http://www.w3.org/2000/svg">
<g clip-path="url(#clip0_1243_369)">
<path d="M45.7407 33.698L89.8004 8.26017C89.9123 8.19554 89.9518 8.05433 89.8885 7.94477L87.7773 4.28801C87.714 4.17845 87.572 4.14203 87.4601 4.20665L81.7253 7.51762L81.3635 8.04737L43.5393 29.8851L45.7407 33.698Z" fill="#514C49" stroke="#363330" stroke-width="1.83249" stroke-miterlimit="3.99393" stroke-linecap="round"/>
<path fill-rule="evenodd" clip-rule="evenodd" d="M31.9442 63.0452C33.7717 62.6784 37.3904 60.7905 37.3904 60.7905C38.3995 60.5002 38.9833 60.7094 39.3003 61.1389C39.6249 61.5787 39.6036 62.2409 39.4108 63.2383C39.0028 65.35 39.9297 67.6962 41.5382 68.9994C43.4722 70.5665 46.3058 70.7955 48.0642 69.2016C48.4244 68.8751 48.0463 68.3761 47.6064 68.5783C46.7723 68.9615 46.3044 68.8417 45.022 68.5244C43.6682 68.1895 42.4252 67.2065 41.8548 65.8204C41.2563 64.3661 41.2056 63.0018 41.8196 61.8791C42.6967 60.2755 43.5352 59.1926 44.7802 57.9836L43.5076 56.5137L34.1838 59.3399L31.9442 63.0452Z" fill="#45413F" stroke="#353230" stroke-width="1.83249" stroke-miterlimit="3.99393" stroke-linecap="round"/>
<path d="M21.7608 63.5666C20.8315 61.8521 19.5306 60.3553 19.3235 58.1406C17.311 57.0653 15.6813 57.3352 13.8604 56.9329C12.0356 56.758 11.311 57.8018 10.9185 59.2985C10.5259 60.7952 9.55319 62.0606 8.86133 62.8621C8.16948 63.6635 7.92338 64.0789 7.55117 64.8213L6.6796 64.462L8.47338 60.9713C9.76005 58.898 9.61035 57.3172 8.83646 55.9505L5.26739 54.139L5.5918 52.6057L6.97129 52.8617L7.36144 50.8863L7.78419 50.9729L11.547 45.3009L12.418 45.5853L9.80274 51.3864L26.9464 54.9305L21.7608 63.5666Z" fill="#5D5855" stroke="#363330" stroke-width="1.83249" stroke-miterlimit="3.99393" stroke-linecap="round"/>
<path fill-rule="evenodd" clip-rule="evenodd" d="M13.504 74.4806C13.5189 71.0017 12.5361 67.8671 11.5601 64.8716C21.8494 60.2773 25.1459 58.4683 23.4612 50.0015L18.877 40.3367L20.561 39.3731C21.4144 39.5622 22.9058 38.7011 23.4564 38.3832C24.007 38.0653 24.4586 37.8241 24.9482 37.6144L42.9631 27.3543C45.8851 25.8569 49.3931 24.2648 51.0552 24.704L56.6909 34.4653C54.3895 35.8681 52.4293 37.5347 54.0295 42.7175C54.1145 43.2634 54.4388 43.7672 54.7631 44.271C55.4377 45.319 56.1124 46.3669 54.6333 47.7941L45.1907 54.4875C40.494 57.7385 39.4594 58.6055 38.2239 61.4906C33.5766 64.8727 30.5267 69.6146 28.7907 74.6588C21.1035 67.7222 16.9577 71.3206 13.6157 74.4819L13.504 74.4806ZM52.9281 46.1488L42.7809 28.5734L25.5967 38.4638L36.1623 56.7641L52.9281 46.1488Z" fill="#79726D"/>
<path d="M27.3621 73.4531C26.1184 72.486 24.9741 71.8087 23.9148 71.3654L30.6148 54.2795L34.3429 55.6513L27.3621 73.4531Z" fill="#6E6863"/>
<path d="M31.9026 49.3828L49.0747 39.4685L46.5139 35.033L29.3418 44.9473L31.9026 49.3828Z" fill="#484442"/>
<path d="M45.9726 34.0915L45.1459 34.0398L42.9446 30.2269L43.3131 29.4851L45.9726 34.0915Z" fill="#45413F"/>
<path fill-rule="evenodd" clip-rule="evenodd" d="M53.7565 29.3718L56.1534 33.5237L66.5848 27.5012L64.1872 23.3485L53.7565 29.3718Z" fill="#5D5855" stroke="#363330" stroke-width="1.83249" stroke-miterlimit="3.99393" stroke-linecap="round"/>
<path fill-rule="evenodd" clip-rule="evenodd" d="M53.7555 29.3701L51.1466 24.8518L61.578 18.8292L64.1872 23.3485L53.7555 29.3701Z" fill="#6B6561" stroke="#363330" stroke-width="1.83249" stroke-miterlimit="3.99393" stroke-linecap="round"/>
<path d="M82.0511 7.32894L87.2552 4.32436C86.5145 3.10205 84.8853 2.71539 83.6146 3.44859L84.0431 4.19085L81.6823 6.69016L82.0511 7.32894Z" fill="#433F3D" stroke="#363330" stroke-width="1.83249" stroke-miterlimit="3.99393" stroke-linecap="round"/>
<path d="M71.4865 22.4081L72.3167 23.846L66.4337 27.2425L65.6035 25.8047L71.4865 22.4081Z" fill="#534E4B" stroke="#363330" stroke-width="1.83249" stroke-miterlimit="3.99393" stroke-linecap="round"/>
<path fill-rule="evenodd" clip-rule="evenodd" d="M35.8966 55.3066L39.3214 53.254L39.0717 52.8083L51.6326 45.3595L42.6405 29.7006L29.958 37.0228L29.6311 36.4566L26.1682 38.4559L35.8966 55.3066Z" fill="#585350"/>
<path d="M39.0688 52.8119L29.9551 37.0264L42.6376 29.7041L51.7514 45.4896L39.0688 52.8119Z" fill="#5D5855" stroke="#363330" stroke-width="1.83249" stroke-miterlimit="3.99393" stroke-linecap="round"/>
<path fill-rule="evenodd" clip-rule="evenodd" d="M27.1348 37.8984L28.7572 36.9617L30.1475 39.3699C29.8379 40.0617 29.2783 40.3845 28.5251 40.3066L27.1348 37.8984Z" fill="#484442"/>
<path fill-rule="evenodd" clip-rule="evenodd" d="M34.5586 50.7539L36.181 49.8172L37.5975 52.2706C37.2878 52.9624 36.7283 53.2853 35.9751 53.2073L34.5586 50.7539Z" fill="#484442"/>
<path fill-rule="evenodd" clip-rule="evenodd" d="M30.8613 44.3506L32.4838 43.4139L34.5264 46.9519C34.2168 47.6437 33.6572 47.9666 32.904 47.8886L30.8613 44.3506Z" fill="#484442"/>
<path fill-rule="evenodd" clip-rule="evenodd" d="M37.7307 38.5859L41.146 36.6141C42.9921 35.5482 44.7946 35.238 45.1875 35.9185C45.5804 36.5991 44.4105 38.005 42.5644 39.0708L39.1491 41.0426C37.303 42.1084 35.5005 42.4186 35.1076 41.7381C34.7147 41.0576 35.8846 39.6517 37.7307 38.5859Z" fill="#484442"/>
<path d="M45.2573 43.7352L41.8421 45.707C40.0017 46.7695 38.7466 48.0411 39.0387 48.5471C39.3309 49.0531 41.0596 48.6019 42.9 47.5394L46.3153 45.5676C48.1556 44.5051 49.4107 43.2335 49.1186 42.7275C48.8264 42.2215 47.0977 42.6726 45.2573 43.7352Z" fill="#484442"/>
<path fill-rule="evenodd" clip-rule="evenodd" d="M41.9993 30.393C42.6946 29.9916 41.2223 32.4795 39.3762 33.5453L35.961 35.5171C34.1149 36.5829 31.2242 36.6141 31.9195 36.2126L41.9993 30.393Z" fill="#484442"/>
<path d="M71.3267 22.1322L72.4769 24.1243L75.7475 22.3772C75.7817 21.8545 75.6399 21.4491 75.406 21.1051C75.225 20.7306 74.9449 20.4051 74.4751 20.1734L71.3267 22.1322Z" fill="#484442" stroke="#363330" stroke-width="1.83249" stroke-miterlimit="3.99393" stroke-linecap="round"/>
<path d="M46.6669 53.4402L54.6371 47.791C54.6371 47.791 55.3126 48.1924 55.3056 48.4918C55.2978 48.8218 55.2047 49.1107 55.1028 49.4266C54.9006 50.0538 55.01 50.5065 55.3397 51.8785C55.5227 52.6396 56.3744 53.5 56.9117 54.3587C57.2961 54.9729 57.86 55.7532 58.1181 56.6907C58.6711 58.6997 58.8276 60.6595 57.9555 62.7832C57.3653 64.2205 55.8907 66.5768 54.0473 68.3887C52.3625 70.0448 49.8629 71.8494 48.1112 72.6972C45.6213 73.9024 40.8501 75.3181 36.3334 72.0165C33.7938 70.1601 32.1188 69.8419 30.1637 71.3198C31.8661 67.7866 34.2979 64.539 37.5684 61.9846C35.1684 72.8634 41.2409 72.3789 45.4673 71.4778C47.58 71.0273 51.2691 68.5946 53.5595 65.7701C55.8499 62.9456 56.5245 60.1982 55.9836 57.5887C55.1704 53.6658 51.7182 51.8216 47.5748 54.1393L46.6669 53.4402Z" fill="#6B6561"/>
<path fill-rule="evenodd" clip-rule="evenodd" d="M35.8966 55.3066L39.3214 53.254L39.0717 52.8083L51.6326 45.3595L42.6405 29.7006L29.958 37.0228L29.6311 36.4566L26.1682 38.4559L35.8966 55.3066Z" stroke="#363330" stroke-width="1.83249" stroke-miterlimit="3.99393" stroke-linecap="round"/>
<path d="M28.8108 105.208C27.7979 104.916 26.3691 103.115 26.3691 103.115L30.0044 101.505C30.0044 101.505 30.3393 103.498 29.9169 104.562L31.082 106.579C31.2552 106.879 31.1471 107.266 30.8407 107.443C30.5343 107.62 30.1455 107.52 29.9724 107.22L28.8108 105.208Z" fill="#403D3A" stroke="#363331" stroke-width="1.83249" stroke-miterlimit="3.99393"/>
<path d="M11.56 64.8716C12.5361 67.8674 13.519 71.0018 13.5042 74.4809L13.6155 74.4817C16.9576 71.3206 21.1034 67.7223 28.7905 74.6585C29.1803 73.5253 29.6343 72.4139 30.16 71.3231C32.115 69.8452 33.7901 70.1633 36.3298 72.0198C40.8466 75.3218 45.6175 73.9054 48.1074 72.7003C49.8594 71.853 52.3589 70.0483 54.0435 68.3918C55.8872 66.5803 57.3616 64.2237 57.9518 62.7867C58.8241 60.6631 58.6679 58.7034 58.1145 56.6941C57.8955 55.8989 57.4564 55.2164 57.0932 54.6522L56.9083 54.3622C56.7234 54.067 56.502 53.7723 56.2832 53.4812L56.28 53.4769L56.2779 53.4741C55.8613 52.9195 55.4556 52.3794 55.3362 51.882L55.3353 51.8782C55.0077 50.5147 54.8972 50.0552 55.0991 49.4298C55.2013 49.1145 55.2943 48.8253 55.302 48.4954C55.3046 48.3916 55.2249 48.2754 55.1195 48.1678C54.9212 47.9651 54.6334 47.7944 54.6334 47.7944C56.1123 46.3672 55.4376 45.3188 54.7633 44.2711L54.7631 44.2708L54.7629 44.2705C54.4385 43.7667 54.1147 43.2637 54.0296 42.7178C52.4292 37.5346 54.3894 35.8677 56.6911 34.4654L51.0554 24.7041C49.393 24.2649 45.8852 25.8572 42.9631 27.3542L24.9484 37.6145C24.4586 37.8239 24.0069 38.0651 23.4562 38.383C22.9058 38.7008 21.4143 39.5619 20.5609 39.3727L18.877 40.3366L23.4613 50.0014C25.1458 58.4681 21.8495 60.2772 11.56 64.8716Z" stroke="#363330" stroke-width="3.66498"/>
<path d="M37.5676 61.9857C37.8458 61.7641 37.9361 61.6996 38.2266 61.4885C39.4617 58.6026 40.4963 57.7356 45.193 54.4847L46.6659 53.4411L47.5738 54.1402C51.7171 51.8224 55.1693 53.6666 55.9824 57.5892C56.5234 60.1988 55.8486 62.9461 53.5582 65.7707C51.268 68.5952 47.5787 71.028 45.4664 71.4788C41.2397 72.3796 35.1675 72.8644 37.5676 61.9857Z" stroke="#363330" stroke-width="1.83249"/>
<path fill-rule="evenodd" clip-rule="evenodd" d="M21.0339 103.995C26.4125 103.954 30.8777 102.105 34.1805 97.9553C29.036 91.0864 25.7598 83.1257 28.7949 74.6584C20.9782 67.6035 16.8228 71.4407 13.4513 74.6371C12.3073 85.8483 16.1141 95.1378 21.0339 103.995Z" fill="#66381A" stroke="#512D15" stroke-width="3.66498" stroke-miterlimit="3.99393" stroke-linecap="round"/>
<path fill-rule="evenodd" clip-rule="evenodd" d="M21.9991 91.8641L24.7301 86.795L20.2958 83.8541L17.6468 88.713L21.9991 91.8641Z" fill="#5E3417"/>
<path d="M21.5823 88.4323C21.9307 88.2311 22.0536 87.7915 21.8567 87.4505C21.6598 87.1094 21.2177 86.9961 20.8692 87.1973C20.5208 87.3984 20.3979 87.838 20.5948 88.179C20.7917 88.5201 21.2338 88.6335 21.5823 88.4323Z" fill="#88593A"/>
<path d="M52.9271 46.1478L42.7799 28.5724L25.5957 38.4629L36.1614 56.7632L52.9271 46.1478Z" stroke="#363330" stroke-width="1.83249" stroke-miterlimit="3.99393" stroke-linecap="round"/>
<path fill-rule="evenodd" clip-rule="evenodd" d="M32.3153 57.4952L31.4296 58.0048L28.8674 53.8504C29.7501 52.3918 30.0992 51.0599 29.194 49.518L24.5389 41.4552L28.3984 39.2269L29.2525 40.7062L27.0009 42.0512L33.5016 53.663L34.5519 53.2194L34.7705 53.5818L34.4155 53.8048L35.3151 55.3742L32.5161 56.9902L32.3153 57.4952Z" fill="#5D5855" stroke="#363330" stroke-width="1.83249" stroke-miterlimit="3.99393" stroke-linecap="round"/>
</g>
<defs>
<clipPath id="clip0_1243_369">
<rect width="110" height="110" fill="white"/>
</clipPath>
</defs>
</svg>
